assets/icons/colors.svg

<?xml version="1.0" encoding="UTF-8" standalone="no"?>
<svg viewBox="0 0 24 24" version="1.1" id="svg4" sodipodi:docname="colors.svg" inkscape:version="1.1 (ce6663b3b7, 2021-05-25)" width="24" height="24"
   xmlns:inkscape="http://www.inkscape.org/namespaces/inkscape"
   xmlns:sodipodi="http://sodipodi.sourceforge.net/DTD/sodipodi-0.dtd"
   xmlns="http://www.w3.org/2000/svg"
   xmlns:svg="http://www.w3.org/2000/svg"
   xmlns:rdf="http://www.w3.org/1999/02/22-rdf-syntax-ns#"
   xmlns:cc="http://creativecommons.org/ns#"
   xmlns:dc="http://purl.org/dc/elements/1.1/">
   <metadata id="metadata10">
      <rdf:RDF>
         <cc:Work rdf:about="">
            <dc:format>image/svg+xml</dc:format>
            <dc:type rdf:resource="http://purl.org/dc/dcmitype/StillImage" />
         </cc:Work>
      </rdf:RDF>
   </metadata>
   <defs id="defs8" />
   <sodipodi:namedview pagecolor="#ffffff" bordercolor="#666666" borderopacity="1" objecttolerance="10" gridtolerance="10" guidetolerance="10" inkscape:pageopacity="0" inkscape:pageshadow="2" inkscape:window-width="1920" inkscape:window-height="1043" id="namedview6" showgrid="true" inkscape:zoom="27.5" inkscape:cx="12.2" inkscape:cy="11.418182" inkscape:window-x="1920" inkscape:window-y="0" inkscape:window-maximized="1" inkscape:current-layer="svg4" inkscape:pagecheckerboard="0">
      <inkscape:grid type="xygrid" id="grid835" />
   </sodipodi:namedview>
   <path id="path845" style="fill:#808080;fill-rule:evenodd;stroke:none;stroke-linecap:square;stroke-linejoin:round;fill-opacity:1" d="m 12,2 c -3.8659932,0 -7,3.1340068 -7,7 0.00427,0.086038 0.010133,0.1719905 0.017578,0.2578125 -1.8855451,1.3043775 -3.0128008,3.4494465 -3.0175781,5.7421875 0,3.865993 3.1340068,7 7,7 1.038323,-0.0025 2.063076,-0.236051 3,-0.683594 0.936924,0.447543 1.961677,0.681048 3,0.683594 3.865993,0 7,-3.134007 7,-7 -9.37e-4,-2.296885 -1.128632,-4.447168 -3.017578,-5.7539062 0.0073,-0.081922 0.01317,-0.1639656 0.01758,-0.2460938 0,-3.8659932 -3.134007,-7 -7,-7 z m 0,1 c 3.1852,3.609e-4 5.815007,2.4895452 5.990234,5.6699219 -0.935033,-0.4414145 -1.956245,-0.6702032 -2.990234,-0.6699219 -1.036048,0.00219 -2.058691,0.2343395 -2.994141,0.6796875 -0.939021,-0.4470426 -1.965855,-0.6792313 -3.005859,-0.6796875 -1.0285696,0.00141 -2.0441903,0.2294741 -2.9746094,0.6679688 0.1758799,-3.1735927 2.7961584,-5.6593882 5.9746094,-5.6679688 z m -3,6 c 0.6577312,6.7e-5 1.310976,0.1082813 1.933594,0.3203125 -1.4264676,1.0244875 -2.4157166,2.5477495 -2.7714846,4.2675785 -1.1502592,-0.960851 -1.8992583,-2.31741 -2.0996094,-3.8027348 0.8955087,-0.5095992 1.90716,-0.7800006 2.9375,-0.7851562 z m 6,0 c 1.029788,6.493e-4 2.042076,0.2663329 2.939453,0.7714844 -0.196848,1.4843216 -0.941572,2.8414046 -2.087891,3.8046876 -0.356547,-1.715362 -1.343391,-3.234657 -2.765624,-4.2578126 0.616522,-0.2092659 1.262994,-0.3167914 1.914062,-0.3183594 z m 3.84375,1.394531 c 1.365932,1.139605 2.155759,2.826573 2.15625,4.605469 0,3.313708 -2.686292,6 -6,6 -0.656637,-0.0018 -1.308533,-0.111282 -1.929688,-0.324219 1.833118,-1.310157 2.923509,-3.422607 2.929688,-5.675781 -2.48e-4,-0.08922 -0.0022,-0.178431 -0.0059,-0.267578 1.470635,-1.027393 2.490691,-2.580199 2.849609,-4.337891 z m -13.6816406,0.01758 c 0.362229,1.755758 1.3842854,3.305621 2.8554687,4.330079 -0.00745,0.08582 -0.013306,0.171774 -0.017578,0.257812 0.00618,2.253174 1.0965699,4.365624 2.929688,5.675781 -0.621155,0.212937 -1.2730509,0.322467 -1.929688,0.324219 -3.3137085,0 -6,-2.686292 -6,-6 0.00714,-1.773702 0.7986995,-3.453351 2.1621094,-4.587891 z m 3.8632812,4.919922 c 0.9304191,0.438495 1.9460394,0.666559 2.9746094,0.667969 1.028569,-0.0014 2.04419,-0.229474 2.974609,-0.667969 -0.114678,2.012337 -1.232097,3.832637 -2.974609,4.845703 -1.742512,-1.013065 -2.8599318,-2.833366 -2.9746094,-4.845703 z" sodipodi:nodetypes="scccccccccscccccccccccccccccccccccccccccccccccc" />
</svg>

<svg width="24" height="24" xmlns="http://www.w3.org/2000/svg"><path style="fill:gray;stroke:none;stroke-linecap:square;stroke-linejoin:round;fill-opacity:1" d="M12 2a7 7 0 0 0-7 7c.004.086.01.172.018.258A7 7 0 0 0 2 15a7 7 0 0 0 7 7 7 7 0 0 0 3-.684A7 7 0 0 0 15 22a7 7 0 0 0 3.982-12.754c.008-.082.014-.164.018-.246a7 7 0 0 0-7-7zm0 1a6 6 0 0 1 5.99 5.67A7 7 0 0 0 15 8a7 7 0 0 0-2.994.68A7 7 0 0 0 9 8a7 7 0 0 0-2.975.668A6 6 0 0 1 12 3zM9 9a6 6 0 0 1 1.934.32 7 7 0 0 0-2.772 4.268 6 6 0 0 1-2.1-3.803A6 6 0 0 1 9 9zm6 0a6 6 0 0 1 2.94.771 6 6 0 0 1-2.088 3.805 7 7 0 0 0-2.766-4.258A6 6 0 0 1 15 9zm3.844 1.395A6 6 0 0 1 15 21a6.001 6.001 0 0 1-1.93-.324 7 7 0 0 0 2.924-5.944 7 7 0 0 0 2.85-4.337zm-13.682.017a7 7 0 0 0 2.856 4.33A6.988 6.988 0 0 0 8 15a7 7 0 0 0 2.93 5.676A6 6 0 0 1 9 21a6 6 0 0 1-6-6 6 6 0 0 1 2.162-4.588zm3.863 4.92A7 7 0 0 0 12 16a7 7 0 0 0 2.975-.668A6 6 0 0 1 12 20.178a6 6 0 0 1-2.975-4.846z"/></svg>
